X:1
T:Columbus, 87.87 D repeat
T:Columbus, 87.87 D repeat
T:John E. Gaul, ca. 1902
T:Public Domain Courtesy of the Cyber Hymnal™
C:John E. Gaul, ca. 1902
Z:Public Domain
Z:Courtesy of the Cyber Hymnal™
%%score ( 1 2 ) ( 3 4 )
L:1/8
Q:1/4=110
M:4/4
K:C
V:1 treble 
V:2 treble 
V:3 bass 
V:4 bass 
V:1
 [CE]2 [DG]2 [CG]2 [CF]2 | E2 (BA) [DA]2 [DG]2 | [EG]2 [Ec]2 E2 [E^F]2 | [EG]2 [^D^F]2 E4 | %4
 [B,E]2 [B,D]2 [CA]2 G2 | [^Fc]2 (BA) [=FA]2 [FG]2 | [Ee]2 [^F_e]2 [Gd]2 G2 | [Gc]2 (BA) G4 | %8
 [=FG]2 [FA]2 [FB]2 [FA]2 | [FG]2 [Fd]2 [Fd]2 [Ec]2 | E2 [E^F]2 [D^G]2 [DF]2 | [DE]2 [DB]2 [CA]4 | %12
 [EA]2 [EG]2 F2 [Fc]2 | [Ee]2 [^Gd]2 [Ad]2 [Ac]2 | [Gc]2 [E_B]2 [FA]2 [_EA]2 | [=EG]2 [DF]2 [CE]4 | %16
 [CG]2 C2 [CG]2 [CF]2 | [CE]2 [B,D]2 C4 |] %18
V:2
 x8 | E2 _E2 x4 | x4 E2 x2 | x4 E4 | x6 G2 | x2 =F2 x4 | x6 G2 | x2 ^F2 G4 | x8 | x8 | E2 x6 | x8 | %12
 x4 F2 x2 | x8 | x8 | x8 | x2 C2 x4 | x4 C4 |] %18
V:3
 [C,G,]2 [C,B,]2 [C,A,]2 [C,A,]2 | [C,G,]2 [C,^F,]2 [B,,=F,]2 [B,,F,]2 | E,2 z [C,G,]2 [A,,C]2 x | %3
 [B,,B,]2 [B,,A,]2 [E,G,]4 | [F,G,]2 [F,G,]2 [E,G,]2 [E,C]2 | [_E,A,]2 (B,C) [D,C]2 [G,B,]2 | %6
 (CG,) [C,A,]2 [B,,D]2 [E,B,]2 | [A,,E]2 (DC) [G,,G,B,]4 | [G,B,]2 [G,C]2 [G,D]2 [G,C]2 | %9
 [G,B,]2 [G,B,]2 [C,B,]2 [C,E]2 | [E,^G,]2 [E,A,]2 [E,B,]2 [E,A,]2 | [E,^G,]2 [E,G,]2 A,4 | %12
 [_B,C]2 [B,C]2 [A,C]2 [A,C]2 | [^G,B,]2 [E,E]2 [A,E]2 [A,E]2 | [E,C]2 [C,C]2 [F,C]2 [^F,C]2 | %15
 [G,C]2 [^G,B,]2 [A,C]4 | [E,_B,]2 [E,B,]2 [F,B,]2 [D,A,]2 | G,2 [G,,F,]2 [C,E,]4 |] %18
V:4
 x8 | x8 | C,3 (G,2 B,,) x2 | x8 | x8 | x2 _E,2 x4 | C,2 x6 | x2 D,2 x4 | x8 | x8 | x8 | x4 A,4 | %12
 x8 | x8 | x8 | x8 | x8 | G,2 x6 |] %18

